static/img/kroki/802cf68816b03941e16ff31762d767dd.svg

<?xml version="1.0" encoding="us-ascii" standalone="no"?><svg xmlns="http://www.w3.org/2000/svg" xmlns:xlink="http://www.w3.org/1999/xlink" contentStyleType="text/css" height="980px" preserveAspectRatio="none" style="width:395px;height:980px;" version="1.1" viewBox="0 0 395 980" width="395px" zoomAndPan="magnify"><defs/><g><!--class account--><g id="elem_account"><rect codeLine="22" fill="#3D176E" height="39.7891" id="account" rx="2.5" ry="2.5" style="stroke:#000D19;stroke-width:0.5;" width="107" x="7" y="482.2"/><ellipse cx="22" cy="502.0945" fill="#ADD1B2" rx="11" ry="11" style="stroke:#181818;stroke-width:1.0;"/><path d="M24.9688,507.7352 Q24.3906,508.032 23.75,508.1727 Q23.1094,508.3289 22.4063,508.3289 Q19.9063,508.3289 18.5781,506.6883 Q17.2656,505.032 17.2656,501.907 Q17.2656,498.782 18.5781,497.1258 Q19.9063,495.4695 22.4063,495.4695 Q23.1094,495.4695 23.75,495.6258 Q24.4063,495.782 24.9688,496.0789 L24.9688,498.7977 Q24.3438,498.2195 23.75,497.9539 Q23.1563,497.6727 22.5313,497.6727 Q21.1875,497.6727 20.5,498.7508 Q19.8125,499.8133 19.8125,501.907 Q19.8125,504.0008 20.5,505.0789 Q21.1875,506.1414 22.5313,506.1414 Q23.1563,506.1414 23.75,505.8758 Q24.3438,505.5945 24.9688,505.0164 L24.9688,507.7352 Z " fill="#000000"/><text fill="#D9B8FF" font-family="Helvetica" font-size="17" lengthAdjust="spacing" textLength="65" x="41" y="507.9798">account</text></g><!--class kubernetes_cluster--><g id="elem_kubernetes_cluster"><rect codeLine="24" fill="#3D176E" height="74.0859" id="kubernetes_cluster" rx="2.5" ry="2.5" style="stroke:#000D19;stroke-width:0.5;" width="289" x="19" y="686.44"/><ellipse cx="74.75" cy="706.3345" fill="#ADD1B2" rx="11" ry="11" style="stroke:#181818;stroke-width:1.0;"/><path d="M77.7188,711.9752 Q77.1406,712.272 76.5,712.4127 Q75.8594,712.5689 75.1563,712.5689 Q72.6563,712.5689 71.3281,710.9283 Q70.0156,709.272 70.0156,706.147 Q70.0156,703.022 71.3281,701.3658 Q72.6563,699.7095 75.1563,699.7095 Q75.8594,699.7095 76.5,699.8658 Q77.1563,700.022 77.7188,700.3189 L77.7188,703.0377 Q77.0938,702.4595 76.5,702.1939 Q75.9063,701.9127 75.2813,701.9127 Q73.9375,701.9127 73.25,702.9908 Q72.5625,704.0533 72.5625,706.147 Q72.5625,708.2408 73.25,709.3189 Q73.9375,710.3814 75.2813,710.3814 Q75.9063,710.3814 76.5,710.1158 Q77.0938,709.8345 77.7188,709.2564 L77.7188,711.9752 Z " fill="#000000"/><text fill="#D9B8FF" font-family="Helvetica" font-size="17" lengthAdjust="spacing" textLength="159" x="100.25" y="712.2198">kubernetes_cluster</text><line style="stroke:#000D19;stroke-width:0.5;" x1="20" x2="307" y1="726.2291" y2="726.2291"/><text fill="#D9B8FF" font-family="sans-serif" font-size="14" font-weight="bold" lengthAdjust="spacing" textLength="92" x="30" y="748.2242">cluster_info</text><text fill="#D9B8FF" font-family="sans-serif" font-size="14" lengthAdjust="spacing" textLength="175" x="122" y="748.2242">: kubernetes_cluster_info</text></g><!--class kubernetes_cluster_info--><g id="elem_kubernetes_cluster_info"><rect codeLine="27" fill="#3D176E" height="152.9766" id="kubernetes_cluster_info" rx="2.5" ry="2.5" style="stroke:#000D19;stroke-width:0.5;" width="242" x="42.5" y="820.52"/><ellipse cx="57.5" cy="840.4145" fill="#ADD1B2" rx="11" ry="11" style="stroke:#181818;stroke-width:1.0;"/><path d="M60.4688,846.0552 Q59.8906,846.352 59.25,846.4927 Q58.6094,846.6489 57.9063,846.6489 Q55.4063,846.6489 54.0781,845.0083 Q52.7656,843.352 52.7656,840.227 Q52.7656,837.102 54.0781,835.4458 Q55.4063,833.7895 57.9063,833.7895 Q58.6094,833.7895 59.25,833.9458 Q59.9063,834.102 60.4688,834.3989 L60.4688,837.1177 Q59.8438,836.5395 59.25,836.2739 Q58.6563,835.9927 58.0313,835.9927 Q56.6875,835.9927 56,837.0708 Q55.3125,838.1333 55.3125,840.227 Q55.3125,842.3208 56,843.3989 Q56.6875,844.4614 58.0313,844.4614 Q58.6563,844.4614 59.25,844.1958 Q59.8438,843.9145 60.4688,843.3364 L60.4688,846.0552 Z " fill="#000000"/><text fill="#D9B8FF" font-family="Helvetica" font-size="17" lengthAdjust="spacing" textLength="200" x="76.5" y="846.2998">kubernetes_cluster_info</text><line style="stroke:#000D19;stroke-width:0.5;" x1="43.5" x2="283.5" y1="860.3091" y2="860.3091"/><text fill="#D9B8FF" font-family="sans-serif" font-size="14" font-weight="bold" lengthAdjust="spacing" textLength="44" x="53.5" y="882.3042">major</text><text fill="#D9B8FF" font-family="sans-serif" font-size="14" lengthAdjust="spacing" textLength="48" x="97.5" y="882.3042">: string</text><text fill="#D9B8FF" font-family="sans-serif" font-size="14" font-weight="bold" lengthAdjust="spacing" textLength="45" x="53.5" y="908.6011">minor</text><text fill="#D9B8FF" font-family="sans-serif" font-size="14" lengthAdjust="spacing" textLength="48" x="98.5" y="908.6011">: string</text><text fill="#D9B8FF" font-family="sans-serif" font-size="14" font-weight="bold" lengthAdjust="spacing" textLength="66" x="53.5" y="934.8979">platform</text><text fill="#D9B8FF" font-family="sans-serif" font-size="14" lengthAdjust="spacing" textLength="48" x="119.5" y="934.8979">: string</text><text fill="#D9B8FF" font-family="sans-serif" font-size="14" font-weight="bold" lengthAdjust="spacing" textLength="80" x="53.5" y="961.1948">server_url</text><text fill="#D9B8FF" font-family="sans-serif" font-size="14" lengthAdjust="spacing" textLength="48" x="133.5" y="961.1948">: string</text></g><!--class kubernetes_resource--><g id="elem_kubernetes_resource"><rect codeLine="33" fill="#3D176E" height="126.6797" id="kubernetes_resource" rx="2.5" ry="2.5" style="stroke:#000D19;stroke-width:0.5;" width="239" x="149" y="438.76"/><ellipse cx="174.35" cy="458.6545" fill="#ADD1B2" rx="11" ry="11" style="stroke:#181818;stroke-width:1.0;"/><path d="M177.3188,464.2952 Q176.7406,464.592 176.1,464.7327 Q175.4594,464.8889 174.7563,464.8889 Q172.2563,464.8889 170.9281,463.2483 Q169.6156,461.592 169.6156,458.467 Q169.6156,455.342 170.9281,453.6858 Q172.2563,452.0295 174.7563,452.0295 Q175.4594,452.0295 176.1,452.1858 Q176.7563,452.342 177.3188,452.6389 L177.3188,455.3577 Q176.6938,454.7795 176.1,454.5139 Q175.5063,454.2327 174.8813,454.2327 Q173.5375,454.2327 172.85,455.3108 Q172.1625,456.3733 172.1625,458.467 Q172.1625,460.5608 172.85,461.6389 Q173.5375,462.7014 174.8813,462.7014 Q175.5063,462.7014 176.1,462.4358 Q176.6938,462.1545 177.3188,461.5764 L177.3188,464.2952 Z " fill="#000000"/><text fill="#D9B8FF" font-family="Helvetica" font-size="17" lengthAdjust="spacing" textLength="174" x="195.65" y="464.5398">kubernetes_resource</text><line style="stroke:#000D19;stroke-width:0.5;" x1="150" x2="387" y1="478.5491" y2="478.5491"/><text fill="#D9B8FF" font-family="sans-serif" font-size="14" font-weight="bold" lengthAdjust="spacing" textLength="46" x="160" y="500.5442">labels</text><text fill="#D9B8FF" font-family="sans-serif" font-size="14" lengthAdjust="spacing" textLength="171" x="206" y="500.5442">: dictionary[string, string]</text><text fill="#D9B8FF" font-family="sans-serif" font-size="14" font-weight="bold" lengthAdjust="spacing" textLength="90" x="160" y="526.8411">namespace</text><text fill="#D9B8FF" font-family="sans-serif" font-size="14" lengthAdjust="spacing" textLength="48" x="250" y="526.8411">: string</text><text fill="#D9B8FF" font-family="sans-serif" font-size="14" font-weight="bold" lengthAdjust="spacing" textLength="138" x="160" y="553.1379">resource_version</text><text fill="#D9B8FF" font-family="sans-serif" font-size="14" lengthAdjust="spacing" textLength="48" x="298" y="553.1379">: string</text></g><!--class resource--><g id="elem_resource"><rect codeLine="38" fill="#3D176E" height="310.7578" id="resource" rx="2.5" ry="2.5" style="stroke:#000D19;stroke-width:0.5;" width="227" x="50" y="7"/><ellipse cx="118.75" cy="26.8945" fill="#ADD1B2" rx="11" ry="11" style="stroke:#181818;stroke-width:1.0;"/><path d="M121.7188,32.5352 Q121.1406,32.832 120.5,32.9727 Q119.8594,33.1289 119.1563,33.1289 Q116.6563,33.1289 115.3281,31.4883 Q114.0156,29.832 114.0156,26.707 Q114.0156,23.582 115.3281,21.9258 Q116.6563,20.2695 119.1563,20.2695 Q119.8594,20.2695 120.5,20.4258 Q121.1563,20.582 121.7188,20.8789 L121.7188,23.5977 Q121.0938,23.0195 120.5,22.7539 Q119.9063,22.4727 119.2813,22.4727 Q117.9375,22.4727 117.25,23.5508 Q116.5625,24.6133 116.5625,26.707 Q116.5625,28.8008 117.25,29.8789 Q117.9375,30.9414 119.2813,30.9414 Q119.9063,30.9414 120.5,30.6758 Q121.0938,30.3945 121.7188,29.8164 L121.7188,32.5352 Z " fill="#000000"/><text fill="#D9B8FF" font-family="Helvetica" font-size="17" lengthAdjust="spacing" textLength="71" x="144.25" y="32.7798">resource</text><line style="stroke:#000D19;stroke-width:0.5;" x1="51" x2="276" y1="46.7891" y2="46.7891"/><text fill="#D9B8FF" font-family="sans-serif" font-size="14" font-weight="bold" lengthAdjust="spacing" textLength="29" x="61" y="68.7842">age</text><text fill="#D9B8FF" font-family="sans-serif" font-size="14" lengthAdjust="spacing" textLength="66" x="90" y="68.7842">: duration</text><text fill="#D9B8FF" font-family="sans-serif" font-size="14" font-weight="bold" lengthAdjust="spacing" textLength="43" x="61" y="95.0811">atime</text><text fill="#D9B8FF" font-family="sans-serif" font-size="14" lengthAdjust="spacing" textLength="70" x="104" y="95.0811">: datetime</text><text fill="#D9B8FF" font-family="sans-serif" font-size="14" font-weight="bold" lengthAdjust="spacing" textLength="43" x="61" y="121.3779">ctime</text><text fill="#D9B8FF" font-family="sans-serif" font-size="14" lengthAdjust="spacing" textLength="70" x="104" y="121.3779">: datetime</text><text fill="#D9B8FF" font-family="sans-serif" font-size="14" font-weight="bold" lengthAdjust="spacing" textLength="14" x="61" y="147.6748">id</text><text fill="#D9B8FF" font-family="sans-serif" font-size="14" lengthAdjust="spacing" textLength="48" x="75" y="147.6748">: string</text><text fill="#D9B8FF" font-family="sans-serif" font-size="14" font-weight="bold" lengthAdjust="spacing" textLength="33" x="61" y="173.9717">kind</text><text fill="#D9B8FF" font-family="sans-serif" font-size="14" lengthAdjust="spacing" textLength="48" x="94" y="173.9717">: string</text><text fill="#D9B8FF" font-family="sans-serif" font-size="14" font-weight="bold" lengthAdjust="spacing" textLength="90" x="61" y="200.2686">last_access</text><text fill="#D9B8FF" font-family="sans-serif" font-size="14" lengthAdjust="spacing" textLength="66" x="151" y="200.2686">: duration</text><text fill="#D9B8FF" font-family="sans-serif" font-size="14" font-weight="bold" lengthAdjust="spacing" textLength="90" x="61" y="226.5654">last_update</text><text fill="#D9B8FF" font-family="sans-serif" font-size="14" lengthAdjust="spacing" textLength="66" x="151" y="226.5654">: duration</text><text fill="#D9B8FF" font-family="sans-serif" font-size="14" font-weight="bold" lengthAdjust="spacing" textLength="48" x="61" y="252.8623">mtime</text><text fill="#D9B8FF" font-family="sans-serif" font-size="14" lengthAdjust="spacing" textLength="70" x="109" y="252.8623">: datetime</text><text fill="#D9B8FF" font-family="sans-serif" font-size="14" font-weight="bold" lengthAdjust="spacing" textLength="43" x="61" y="279.1592">name</text><text fill="#D9B8FF" font-family="sans-serif" font-size="14" lengthAdjust="spacing" textLength="48" x="104" y="279.1592">: string</text><text fill="#D9B8FF" font-family="sans-serif" font-size="14" font-weight="bold" lengthAdjust="spacing" textLength="34" x="61" y="305.4561">tags</text><text fill="#D9B8FF" font-family="sans-serif" font-size="14" lengthAdjust="spacing" textLength="171" x="95" y="305.4561">: dictionary[string, string]</text></g><!--reverse link resource to account--><g id="link_resource_account"><path codeLine="50" d="M110.25,337.97 C92.59,395.89 75.2,452.91 66.41,481.73 " fill="none" id="resource-backto-account" style="stroke:#FFAF37;stroke-width:2.0;"/><polygon fill="none" points="103.84,336,116.37,318.91,117.23,340.08,103.84,336" style="stroke:#FFAF37;stroke-width:2.0;"/></g><!--reverse link account to kubernetes_cluster--><g id="link_account_kubernetes_cluster"><path codeLine="51" d="M78.33,541.07 C97.43,581.75 127.53,645.86 146.36,685.97 " fill="none" id="account-backto-kubernetes_cluster" style="stroke:#FFAF37;stroke-width:2.0;"/><polygon fill="none" points="71.62,544.26,69.46,523.18,84.3,538.31,71.62,544.26" style="stroke:#FFAF37;stroke-width:2.0;"/></g><!--link kubernetes_cluster to kubernetes_cluster_info--><g id="link_kubernetes_cluster_kubernetes_cluster_info"><path codeLine="52" d="M163.5,760.86 C163.5,776.54 163.5,795.57 163.5,814.34 " fill="none" id="kubernetes_cluster-to-kubernetes_cluster_info" style="stroke:#FFAF37;stroke-width:2.0;"/><polygon fill="#FFAF37" points="163.5,819.15,167.5,810.15,163.5,814.15,159.5,810.15,163.5,819.15" style="stroke:#FFAF37;stroke-width:2.0;"/></g><!--reverse link kubernetes_resource to kubernetes_cluster--><g id="link_kubernetes_resource_kubernetes_cluster"><path codeLine="53" d="M229.5,584.58 C212.77,619.54 194.07,658.61 180.86,686.21 " fill="none" id="kubernetes_resource-backto-kubernetes_cluster" style="stroke:#FFAF37;stroke-width:2.0;"/><polygon fill="none" points="223.6,581.69,238.55,566.67,236.23,587.73,223.6,581.69" style="stroke:#FFAF37;stroke-width:2.0;"/></g><!--reverse link resource to kubernetes_resource--><g id="link_resource_kubernetes_resource"><path codeLine="54" d="M217.76,337.9 C228.95,373.9 240.04,409.56 248.98,438.32 " fill="none" id="resource-backto-kubernetes_resource" style="stroke:#FFAF37;stroke-width:2.0;"/><polygon fill="none" points="210.8,340.08,211.54,318.91,224.17,335.93,210.8,340.08" style="stroke:#FFAF37;stroke-width:2.0;"/></g><!--SRC=[XLDTQnin47o_No78cyc1dT0w3Y6G64hp4ahJjrBCMjexgxwJZjLUWjlclrUwyuNxjD_4p6XcLxlQQOK2yu8F8iTyY-GYjzUc089SF13PjxNDB8cB987aUjadlrZ3PmNFaAFuYjahifRGL_pOQRatw9ouQb6F8FSfsTAesfu9ZFCK6cwfrXauzy1CUbiojefHg-rDalILVTEBQxLOViQ1p992EahcyxbQhFgIir4d-_vGlEW_A1RjHtksZ8Co1n6LwcILGT4gSj1emq_M-0sKqYOLdrhOzxecCaWT_6K7ohu5TGAPQySuHaBBXmBNWwvmTQEIvQZuQKeimyi9aD9JBFv6xqTaN_hLDSZeDZ8hWv4dPxFZUQDDOcUpsn5PHPsmgVZAAuVVbeA9y-jcqe1eqqEA33Ynb7T0X_JgZKhAMl188g6p9KciqZBOOkR21QKbQsk03Z_hkvT7ZrzUPlpu_BUGs4bid3O-r_cx8xcTC4Yh-wea2541OPtN6326StZC4KohJh0VPHVmMRpnu_BVkvTGCMKHl7fCFf8J-kmOCwJdNkSz-cZoxbySnytQHCtwrEXmvj78DiNn_UJsZCrmqdjQqJ3_0G00]--></g></svg>

<svg xmlns="http://www.w3.org/2000/svg" width="395" height="980" preserveAspectRatio="none" style="width:395px;height:980px"><rect width="107" height="39.789" x="7" y="482.2" fill="#3D176E" rx="2.5" ry="2.5" style="stroke:#000d19;stroke-width:.5"/><circle cx="22" cy="502.094" r="11" fill="#ADD1B2" style="stroke:#181818;stroke-width:1"/><path d="M24.969 507.735q-.578.297-1.219.438-.64.156-1.344.156-2.5 0-3.828-1.64-1.312-1.657-1.312-4.782t1.312-4.781q1.328-1.656 3.828-1.656.703 0 1.344.156.656.156 1.219.453v2.719q-.625-.579-1.219-.844-.594-.281-1.219-.281-1.343 0-2.031 1.078-.688 1.062-.688 3.156 0 2.094.688 3.172.688 1.062 2.031 1.062.625 0 1.219-.265.594-.281 1.219-.86v2.72Z"/><text x="41" y="507.98" fill="#D9B8FF" font-family="Helvetica" font-size="17" textLength="65">account</text><rect width="289" height="74.086" x="19" y="686.44" fill="#3D176E" rx="2.5" ry="2.5" style="stroke:#000d19;stroke-width:.5"/><circle cx="74.75" cy="706.335" r="11" fill="#ADD1B2" style="stroke:#181818;stroke-width:1"/><path d="M77.719 711.975q-.578.297-1.219.438-.64.156-1.344.156-2.5 0-3.828-1.64-1.312-1.657-1.312-4.782t1.312-4.781q1.328-1.656 3.828-1.656.703 0 1.344.156.656.156 1.219.453v2.719q-.625-.578-1.219-.844-.594-.281-1.219-.281-1.344 0-2.031 1.078-.688 1.062-.688 3.156 0 2.094.688 3.172.688 1.062 2.031 1.062.625 0 1.219-.265.594-.281 1.219-.86v2.72Z"/><text x="100.25" y="712.22" fill="#D9B8FF" font-family="Helvetica" font-size="17" textLength="159">kubernetes_cluster</text><path d="M20 726.229h287" style="stroke:#000d19;stroke-width:.5"/><text x="30" y="748.224" fill="#D9B8FF" font-family="sans-serif" font-size="14" font-weight="bold" textLength="92">cluster_info</text><text x="122" y="748.224" fill="#D9B8FF" font-family="sans-serif" font-size="14" textLength="175">: kubernetes_cluster_info</text><rect width="242" height="152.977" x="42.5" y="820.52" fill="#3D176E" rx="2.5" ry="2.5" style="stroke:#000d19;stroke-width:.5"/><circle cx="57.5" cy="840.414" r="11" fill="#ADD1B2" style="stroke:#181818;stroke-width:1"/><path d="M60.469 846.055q-.578.297-1.219.438-.64.156-1.344.156-2.5 0-3.828-1.64-1.312-1.657-1.312-4.782t1.312-4.781q1.328-1.657 3.828-1.657.703 0 1.344.157.656.156 1.219.453v2.719q-.625-.579-1.219-.844-.594-.281-1.219-.281-1.343 0-2.031 1.078-.688 1.062-.688 3.156 0 2.094.688 3.172.688 1.062 2.031 1.062.625 0 1.219-.265.594-.282 1.219-.86v2.72Z"/><text x="76.5" y="846.3" fill="#D9B8FF" font-family="Helvetica" font-size="17" textLength="200">kubernetes_cluster_info</text><path d="M43.5 860.309h240" style="stroke:#000d19;stroke-width:.5"/><text x="53.5" y="882.304" fill="#D9B8FF" font-family="sans-serif" font-size="14" font-weight="bold" textLength="44">major</text><text x="97.5" y="882.304" fill="#D9B8FF" font-family="sans-serif" font-size="14" textLength="48">: string</text><text x="53.5" y="908.601" fill="#D9B8FF" font-family="sans-serif" font-size="14" font-weight="bold" textLength="45">minor</text><text x="98.5" y="908.601" fill="#D9B8FF" font-family="sans-serif" font-size="14" textLength="48">: string</text><text x="53.5" y="934.898" fill="#D9B8FF" font-family="sans-serif" font-size="14" font-weight="bold" textLength="66">platform</text><text x="119.5" y="934.898" fill="#D9B8FF" font-family="sans-serif" font-size="14" textLength="48">: string</text><text x="53.5" y="961.195" fill="#D9B8FF" font-family="sans-serif" font-size="14" font-weight="bold" textLength="80">server_url</text><text x="133.5" y="961.195" fill="#D9B8FF" font-family="sans-serif" font-size="14" textLength="48">: string</text><rect width="239" height="126.68" x="149" y="438.76" fill="#3D176E" rx="2.5" ry="2.5" style="stroke:#000d19;stroke-width:.5"/><circle cx="174.35" cy="458.654" r="11" fill="#ADD1B2" style="stroke:#181818;stroke-width:1"/><path d="M177.319 464.295q-.578.297-1.219.438-.64.156-1.344.156-2.5 0-3.828-1.64-1.312-1.657-1.312-4.782t1.312-4.781q1.328-1.656 3.828-1.656.703 0 1.344.156.656.156 1.219.453v2.719q-.625-.579-1.219-.844-.594-.281-1.219-.281-1.344 0-2.031 1.078-.688 1.062-.688 3.156 0 2.094.688 3.172.688 1.062 2.031 1.062.625 0 1.219-.265.594-.281 1.219-.86v2.72Z"/><text x="195.65" y="464.54" fill="#D9B8FF" font-family="Helvetica" font-size="17" textLength="174">kubernetes_resource</text><path d="M150 478.549h237" style="stroke:#000d19;stroke-width:.5"/><text x="160" y="500.544" fill="#D9B8FF" font-family="sans-serif" font-size="14" font-weight="bold" textLength="46">labels</text><text x="206" y="500.544" fill="#D9B8FF" font-family="sans-serif" font-size="14" textLength="171">: dictionary[string, string]</text><text x="160" y="526.841" fill="#D9B8FF" font-family="sans-serif" font-size="14" font-weight="bold" textLength="90">namespace</text><text x="250" y="526.841" fill="#D9B8FF" font-family="sans-serif" font-size="14" textLength="48">: string</text><text x="160" y="553.138" fill="#D9B8FF" font-family="sans-serif" font-size="14" font-weight="bold" textLength="138">resource_version</text><text x="298" y="553.138" fill="#D9B8FF" font-family="sans-serif" font-size="14" textLength="48">: string</text><rect width="227" height="310.758" x="50" y="7" fill="#3D176E" rx="2.5" ry="2.5" style="stroke:#000d19;stroke-width:.5"/><circle cx="118.75" cy="26.895" r="11" fill="#ADD1B2" style="stroke:#181818;stroke-width:1"/><path d="M121.719 32.535q-.578.297-1.219.438-.64.156-1.344.156-2.5 0-3.828-1.64-1.312-1.657-1.312-4.782t1.312-4.781q1.328-1.656 3.828-1.656.703 0 1.344.156.656.156 1.219.453v2.719q-.625-.578-1.219-.844-.594-.281-1.219-.281-1.344 0-2.031 1.078-.688 1.062-.688 3.156 0 2.094.688 3.172.688 1.062 2.031 1.062.625 0 1.219-.265.594-.281 1.219-.86v2.72Z"/><text x="144.25" y="32.78" fill="#D9B8FF" font-family="Helvetica" font-size="17" textLength="71">resource</text><path d="M51 46.789h225" style="stroke:#000d19;stroke-width:.5"/><text x="61" y="68.784" fill="#D9B8FF" font-family="sans-serif" font-size="14" font-weight="bold" textLength="29">age</text><text x="90" y="68.784" fill="#D9B8FF" font-family="sans-serif" font-size="14" textLength="66">: duration</text><text x="61" y="95.081" fill="#D9B8FF" font-family="sans-serif" font-size="14" font-weight="bold" textLength="43">atime</text><text x="104" y="95.081" fill="#D9B8FF" font-family="sans-serif" font-size="14" textLength="70">: datetime</text><text x="61" y="121.378" fill="#D9B8FF" font-family="sans-serif" font-size="14" font-weight="bold" textLength="43">ctime</text><text x="104" y="121.378" fill="#D9B8FF" font-family="sans-serif" font-size="14" textLength="70">: datetime</text><text x="61" y="147.675" fill="#D9B8FF" font-family="sans-serif" font-size="14" font-weight="bold" textLength="14">id</text><text x="75" y="147.675" fill="#D9B8FF" font-family="sans-serif" font-size="14" textLength="48">: string</text><text x="61" y="173.972" fill="#D9B8FF" font-family="sans-serif" font-size="14" font-weight="bold" textLength="33">kind</text><text x="94" y="173.972" fill="#D9B8FF" font-family="sans-serif" font-size="14" textLength="48">: string</text><text x="61" y="200.269" fill="#D9B8FF" font-family="sans-serif" font-size="14" font-weight="bold" textLength="90">last_access</text><text x="151" y="200.269" fill="#D9B8FF" font-family="sans-serif" font-size="14" textLength="66">: duration</text><text x="61" y="226.565" fill="#D9B8FF" font-family="sans-serif" font-size="14" font-weight="bold" textLength="90">last_update</text><text x="151" y="226.565" fill="#D9B8FF" font-family="sans-serif" font-size="14" textLength="66">: duration</text><text x="61" y="252.862" fill="#D9B8FF" font-family="sans-serif" font-size="14" font-weight="bold" textLength="48">mtime</text><text x="109" y="252.862" fill="#D9B8FF" font-family="sans-serif" font-size="14" textLength="70">: datetime</text><text x="61" y="279.159" fill="#D9B8FF" font-family="sans-serif" font-size="14" font-weight="bold" textLength="43">name</text><text x="104" y="279.159" fill="#D9B8FF" font-family="sans-serif" font-size="14" textLength="48">: string</text><text x="61" y="305.456" fill="#D9B8FF" font-family="sans-serif" font-size="14" font-weight="bold" textLength="34">tags</text><text x="95" y="305.456" fill="#D9B8FF" font-family="sans-serif" font-size="14" textLength="171">: dictionary[string, string]</text><path fill="none" d="M110.25 337.97C92.59 395.89 75.2 452.91 66.41 481.73M103.84 336l12.53-17.09.86 21.17-13.39-4.08z" style="stroke:#ffaf37;stroke-width:2"/><g fill="none"><path d="M78.33 541.07c19.1 40.68 49.2 104.79 68.03 144.9" style="stroke:#ffaf37;stroke-width:2"/><path d="m71.62 544.26-2.16-21.08 14.84 15.13-12.68 5.95z" style="stroke:#ffaf37;stroke-width:2"/></g><path fill="none" d="M163.5 760.86v53.48" style="stroke:#ffaf37;stroke-width:2"/><path fill="#FFAF37" d="m163.5 819.15 4-9-4 4-4-4 4 9z" style="stroke:#ffaf37;stroke-width:2"/><path fill="none" d="M229.5 584.58c-16.73 34.96-35.43 74.03-48.64 101.63m42.74-104.52 14.95-15.02-2.32 21.06-12.63-6.04z" style="stroke:#ffaf37;stroke-width:2"/><g fill="none"><path d="M217.76 337.9c11.19 36 22.28 71.66 31.22 100.42" style="stroke:#ffaf37;stroke-width:2"/><path d="m210.8 340.08.74-21.17 12.63 17.02-13.37 4.15z" style="stroke:#ffaf37;stroke-width:2"/></g></svg>
